Newaita-dark/.places-mint/24/folder-megasync.svg

<?xml version="1.0" encoding="UTF-8"?>
<svg xmlns="http://www.w3.org/2000/svg" xmlns:xlink="http://www.w3.org/1999/xlink" width="24px" height="24px" viewBox="0 0 24 24" version="1.1">
<defs>
<linearGradient id="linear0" gradientUnits="userSpaceOnUse" x1="254" y1="233.5" x2="254" y2="254.666672" gradientTransform="matrix(0.0468795,0,0,0.0468795,-0.0000028613,10.07909)">
<stop offset="0" style="stop-color:rgb(0%,0%,0%);stop-opacity:0.27451;"/>
<stop offset="1" style="stop-color:rgb(0%,0%,0%);stop-opacity:0;"/>
</linearGradient>
<radialGradient id="radial0" gradientUnits="userSpaceOnUse" cx="450.908936" cy="189.579361" fx="450.908936" fy="189.579361" r="21.166656" gradientTransform="matrix(0.000000130628,-0.0585994,-0.105479,-0.0000000761539,40.58641,47.696501)">
<stop offset="0" style="stop-color:rgb(0%,0%,0%);stop-opacity:0.313726;"/>
<stop offset="0.222222" style="stop-color:rgb(0%,0%,0%);stop-opacity:0.27451;"/>
<stop offset="1" style="stop-color:rgb(0%,0%,0%);stop-opacity:0;"/>
</radialGradient>
<radialGradient id="radial1" gradientUnits="userSpaceOnUse" cx="450.908936" cy="189.579361" fx="450.908936" fy="189.579361" r="21.166656" gradientTransform="matrix(-0.000000130628,0.0585994,0.105479,0.0000000761539,-16.771633,-5.645608)">
<stop offset="0" style="stop-color:rgb(0%,0%,0%);stop-opacity:0.313726;"/>
<stop offset="0.222222" style="stop-color:rgb(0%,0%,0%);stop-opacity:0.27451;"/>
<stop offset="1" style="stop-color:rgb(0%,0%,0%);stop-opacity:0;"/>
</radialGradient>
<radialGradient id="radial2" gradientUnits="userSpaceOnUse" cx="450.908936" cy="189.579361" fx="450.908936" fy="189.579361" r="21.166656" gradientTransform="matrix(-0.000000130628,-0.0585994,0.105479,-0.0000000761539,-16.771633,47.696501)">
<stop offset="0" style="stop-color:rgb(0%,0%,0%);stop-opacity:0.313726;"/>
<stop offset="0.222222" style="stop-color:rgb(0%,0%,0%);stop-opacity:0.27451;"/>
<stop offset="1" style="stop-color:rgb(0%,0%,0%);stop-opacity:0;"/>
</radialGradient>
<radialGradient id="radial3" gradientUnits="userSpaceOnUse" cx="450.908936" cy="189.579361" fx="450.908936" fy="189.579361" r="21.166656" gradientTransform="matrix(0.000000130628,0.0585994,-0.105479,0.0000000761539,40.586408,-5.645608)">
<stop offset="0" style="stop-color:rgb(0%,0%,0%);stop-opacity:0.313726;"/>
<stop offset="0.222222" style="stop-color:rgb(0%,0%,0%);stop-opacity:0.27451;"/>
<stop offset="1" style="stop-color:rgb(0%,0%,0%);stop-opacity:0;"/>
</radialGradient>
<linearGradient id="linear1" gradientUnits="userSpaceOnUse" x1="254" y1="-147.5" x2="254" y2="-31.083334" gradientTransform="matrix(0.0468795,0,0,0.0468795,0.000000937315,10.079086)">
<stop offset="0" style="stop-color:rgb(64.313728%,64.313728%,64.313728%);stop-opacity:0;"/>
<stop offset="1" style="stop-color:rgb(100%,100%,100%);stop-opacity:0.196078;"/>
</linearGradient>
<linearGradient id="linear2" gradientUnits="userSpaceOnUse" x1="254" y1="233.5" x2="254" y2="-105.166656" gradientTransform="matrix(0.0468795,0,0,0.0468795,-0.0000013593,10.079087)">
<stop offset="0" style="stop-color:rgb(34.509805%,34.509805%,34.509805%);stop-opacity:0;"/>
<stop offset="1" style="stop-color:rgb(98.039216%,98.039216%,98.039216%);stop-opacity:0.196078;"/>
</linearGradient>
</defs>
<g id="surface1">
<path style=" stroke:none;fill-rule:nonzero;fill:url(#linear0);" d="M 2.976562 21.027344 L 20.839844 21.027344 L 20.839844 22.019531 L 2.976562 22.019531 Z M 2.976562 21.027344 "/>
<path style=" stroke:none;fill-rule:nonzero;fill:url(#radial0);" d="M 20.839844 21.027344 L 22.824219 21.027344 L 22.824219 20.03125 L 20.839844 20.03125 Z M 20.839844 21.027344 "/>
<path style=" stroke:none;fill-rule:nonzero;fill:url(#radial1);" d="M 2.976562 21.027344 L 0.992188 21.027344 L 0.992188 22.019531 L 2.976562 22.019531 Z M 2.976562 21.027344 "/>
<path style=" stroke:none;fill-rule:nonzero;fill:url(#radial2);" d="M 2.976562 21.027344 L 0.992188 21.027344 L 0.992188 20.03125 L 2.976562 20.03125 Z M 2.976562 21.027344 "/>
<path style=" stroke:none;fill-rule:nonzero;fill:url(#radial3);" d="M 20.839844 21.027344 L 22.824219 21.027344 L 22.824219 22.019531 L 20.839844 22.019531 Z M 20.839844 21.027344 "/>
<path style=" stroke:none;fill-rule:nonzero;fill:rgb(61.176473%,80.000001%,39.607844%);fill-opacity:1;" d="M 5.457031 3.164062 L 21.582031 3.164062 C 22.128906 3.164062 22.574219 3.609375 22.574219 4.15625 L 22.574219 7.878906 C 22.574219 8.425781 22.128906 8.871094 21.582031 8.871094 L 5.457031 8.871094 C 4.910156 8.871094 4.464844 8.425781 4.464844 7.878906 L 4.464844 4.15625 C 4.464844 3.609375 4.910156 3.164062 5.457031 3.164062 Z M 5.457031 3.164062 "/>
<path style=" stroke:none;fill-rule:nonzero;fill:url(#linear1);" d="M 5.457031 3.164062 L 21.582031 3.164062 C 22.128906 3.164062 22.574219 3.609375 22.574219 4.15625 L 22.574219 7.878906 C 22.574219 8.425781 22.128906 8.871094 21.582031 8.871094 L 5.457031 8.871094 C 4.910156 8.871094 4.464844 8.425781 4.464844 7.878906 L 4.464844 4.15625 C 4.464844 3.609375 4.910156 3.164062 5.457031 3.164062 Z M 5.457031 3.164062 "/>
<path style=" stroke:none;fill-rule:nonzero;fill:rgb(100%,100%,100%);fill-opacity:0.392157;" d="M 5.457031 3.226562 C 4.90625 3.226562 4.464844 3.667969 4.464844 4.21875 L 4.464844 4.34375 C 4.464844 3.792969 4.90625 3.351562 5.457031 3.351562 L 21.582031 3.351562 C 22.132812 3.351562 22.574219 3.792969 22.574219 4.34375 L 22.574219 4.21875 C 22.574219 3.667969 22.132812 3.226562 21.582031 3.226562 Z M 5.457031 3.226562 "/>
<path style=" stroke:none;fill-rule:nonzero;fill:rgb(12.941177%,12.941177%,12.941177%);fill-opacity:1;" d="M 5.457031 3.09375 C 4.871094 3.09375 4.394531 3.570312 4.394531 4.15625 L 4.394531 7.878906 C 4.394531 8.464844 4.871094 8.941406 5.457031 8.941406 L 21.582031 8.941406 C 22.167969 8.941406 22.644531 8.464844 22.644531 7.878906 L 22.644531 4.15625 C 22.644531 3.570312 22.167969 3.09375 21.582031 3.09375 Z M 5.457031 3.234375 L 21.582031 3.234375 C 22.09375 3.234375 22.503906 3.644531 22.503906 4.15625 L 22.503906 7.878906 C 22.503906 8.390625 22.09375 8.800781 21.582031 8.800781 L 5.457031 8.800781 C 4.945312 8.800781 4.535156 8.390625 4.535156 7.878906 L 4.535156 4.15625 C 4.535156 3.644531 4.945312 3.234375 5.457031 3.234375 Z M 5.457031 3.234375 "/>
<path style=" stroke:none;fill-rule:nonzero;fill:rgb(68.235296%,83.529413%,50.588238%);fill-opacity:1;" d="M 1.984375 5.148438 C 1.433594 5.148438 0.992188 5.589844 0.992188 6.140625 L 0.992188 20.03125 C 0.992188 20.582031 1.433594 21.027344 1.984375 21.027344 L 21.832031 21.027344 C 22.378906 21.027344 22.824219 20.582031 22.824219 20.03125 L 22.824219 7.628906 L 9.425781 7.628906 C 8.878906 7.628906 8.433594 7.1875 8.433594 6.636719 L 8.433594 5.148438 Z M 1.984375 5.148438 "/>
<path style=" stroke:none;fill-rule:nonzero;fill:url(#linear2);" d="M 1.984375 5.148438 C 1.433594 5.148438 0.992188 5.589844 0.992188 6.140625 L 0.992188 20.03125 C 0.992188 20.582031 1.433594 21.027344 1.984375 21.027344 L 21.832031 21.027344 C 22.378906 21.027344 22.824219 20.582031 22.824219 20.03125 L 22.824219 7.628906 L 9.425781 7.628906 C 8.878906 7.628906 8.433594 7.1875 8.433594 6.636719 L 8.433594 5.148438 Z M 1.984375 5.148438 "/>
<path style=" stroke:none;fill-rule:nonzero;fill:rgb(0%,0%,0%);fill-opacity:0.196078;" d="M 1.984375 21.027344 C 1.433594 21.027344 0.992188 20.582031 0.992188 20.03125 L 0.992188 19.910156 C 0.992188 20.457031 1.433594 20.902344 1.984375 20.902344 L 21.832031 20.902344 C 22.378906 20.902344 22.824219 20.457031 22.824219 19.910156 L 22.824219 20.03125 C 22.824219 20.582031 22.378906 21.027344 21.832031 21.027344 Z M 1.984375 21.027344 "/>
<path style=" stroke:none;fill-rule:nonzero;fill:rgb(100%,100%,100%);fill-opacity:0.392157;" d="M 1.984375 5.210938 C 1.433594 5.210938 0.992188 5.652344 0.992188 6.203125 L 0.992188 6.328125 C 0.992188 5.777344 1.433594 5.335938 1.984375 5.335938 L 8.433594 5.335938 L 8.433594 5.210938 Z M 1.984375 5.210938 "/>
<path style=" stroke:none;fill-rule:nonzero;fill:rgb(100%,100%,100%);fill-opacity:0.392157;" d="M 9.363281 7.753906 C 8.816406 7.753906 8.371094 7.3125 8.371094 6.761719 L 8.371094 6.636719 C 8.371094 7.1875 8.816406 7.628906 9.363281 7.628906 L 22.824219 7.628906 L 22.824219 7.753906 Z M 9.363281 7.753906 "/>
<path style=" stroke:none;fill-rule:nonzero;fill:rgb(12.941177%,12.941177%,12.941177%);fill-opacity:1;" d="M 1.984375 5.078125 C 1.398438 5.078125 0.921875 5.554688 0.921875 6.140625 L 0.921875 20.03125 C 0.921875 20.621094 1.398438 21.097656 1.984375 21.097656 L 21.832031 21.097656 C 22.417969 21.097656 22.894531 20.621094 22.894531 20.03125 L 22.894531 7.488281 L 9.425781 7.488281 C 8.914062 7.488281 8.503906 7.078125 8.503906 6.566406 L 8.503906 5.078125 Z M 1.984375 5.21875 L 8.363281 5.21875 L 8.363281 6.566406 C 8.363281 7.15625 8.839844 7.628906 9.425781 7.628906 L 22.753906 7.628906 L 22.753906 20.03125 C 22.753906 20.546875 22.34375 20.957031 21.832031 20.957031 L 1.984375 20.957031 C 1.472656 20.957031 1.0625 20.546875 1.0625 20.03125 L 1.0625 6.140625 C 1.0625 5.628906 1.472656 5.21875 1.984375 5.21875 Z M 1.984375 5.21875 "/>
<path style=" stroke:none;fill-rule:nonzero;fill:rgb(54.509807%,76.47059%,29.019609%);fill-opacity:1;" d="M 9.253906 9.875 C 9.066406 9.871094 8.882812 9.9375 8.742188 10.078125 L 8.703125 10.117188 C 8.542969 10.28125 8.476562 10.5 8.503906 10.714844 L 8.503906 16.582031 C 8.503906 16.992188 8.835938 17.324219 9.25 17.324219 C 9.660156 17.324219 9.992188 16.992188 9.992188 16.582031 L 9.992188 12.421875 L 11.441406 13.871094 C 11.585938 14.015625 11.773438 14.089844 11.957031 14.09375 C 11.964844 14.09375 11.972656 14.09375 11.976562 14.09375 C 11.984375 14.09375 11.992188 14.09375 11.996094 14.09375 C 12.183594 14.089844 12.367188 14.015625 12.515625 13.871094 L 13.960938 12.421875 L 13.960938 16.582031 C 13.960938 16.992188 14.292969 17.324219 14.707031 17.324219 C 15.117188 17.324219 15.449219 16.992188 15.449219 16.582031 L 15.449219 10.714844 C 15.480469 10.5 15.414062 10.28125 15.253906 10.117188 L 15.210938 10.078125 C 14.933594 9.796875 14.472656 9.808594 14.179688 10.097656 L 11.976562 12.300781 L 9.773438 10.097656 C 9.628906 9.953125 9.441406 9.878906 9.253906 9.875 Z M 9.253906 9.875 "/>
<path style=" stroke:none;fill-rule:nonzero;fill:rgb(0%,0%,0%);fill-opacity:0.235294;" d="M 9.253906 9.875 C 9.066406 9.871094 8.882812 9.9375 8.742188 10.078125 L 8.703125 10.117188 C 8.542969 10.28125 8.476562 10.5 8.503906 10.714844 L 8.503906 10.722656 C 8.523438 10.574219 8.589844 10.433594 8.703125 10.320312 L 8.742188 10.28125 C 8.882812 10.140625 9.066406 10.074219 9.253906 10.078125 C 9.441406 10.078125 9.628906 10.15625 9.773438 10.300781 L 11.976562 12.503906 L 14.179688 10.300781 C 14.472656 10.007812 14.933594 10 15.210938 10.28125 L 15.253906 10.320312 C 15.367188 10.433594 15.429688 10.574219 15.449219 10.722656 L 15.449219 10.714844 C 15.480469 10.5 15.414062 10.28125 15.253906 10.117188 L 15.210938 10.078125 C 14.933594 9.796875 14.472656 9.808594 14.179688 10.097656 L 11.976562 12.300781 L 9.773438 10.097656 C 9.628906 9.953125 9.441406 9.878906 9.253906 9.875 Z M 9.253906 9.875 "/>
<path style=" stroke:none;fill-rule:nonzero;fill:rgb(100%,100%,100%);fill-opacity:0.392157;" d="M 8.503906 10.699219 C 8.496094 10.761719 8.496094 10.828125 8.503906 10.890625 L 8.503906 10.707031 C 8.503906 10.707031 8.503906 10.703125 8.503906 10.699219 Z M 15.453125 10.699219 C 15.449219 10.703125 15.449219 10.707031 15.449219 10.707031 L 15.449219 10.890625 C 15.460938 10.828125 15.460938 10.761719 15.453125 10.699219 Z M 9.992188 12.414062 L 9.992188 12.597656 L 11.441406 14.046875 C 11.585938 14.191406 11.773438 14.265625 11.957031 14.269531 C 11.964844 14.269531 11.972656 14.269531 11.976562 14.269531 C 11.984375 14.269531 11.992188 14.269531 11.996094 14.269531 C 12.183594 14.265625 12.367188 14.191406 12.515625 14.046875 L 13.960938 12.597656 L 13.960938 12.414062 L 12.515625 13.863281 C 12.367188 14.007812 12.183594 14.082031 11.996094 14.089844 C 11.992188 14.089844 11.984375 14.089844 11.976562 14.089844 C 11.972656 14.089844 11.964844 14.089844 11.957031 14.089844 C 11.773438 14.082031 11.585938 14.007812 11.441406 13.863281 Z M 8.503906 16.574219 L 8.503906 16.753906 C 8.503906 17.167969 8.835938 17.5 9.25 17.5 C 9.660156 17.5 9.992188 17.167969 9.992188 16.753906 L 9.992188 16.574219 C 9.992188 16.984375 9.660156 17.316406 9.25 17.316406 C 8.835938 17.316406 8.503906 16.984375 8.503906 16.574219 Z M 13.960938 16.574219 L 13.960938 16.753906 C 13.960938 17.167969 14.292969 17.5 14.707031 17.5 C 15.117188 17.5 15.449219 17.167969 15.449219 16.753906 L 15.449219 16.574219 C 15.449219 16.984375 15.117188 17.316406 14.707031 17.316406 C 14.292969 17.316406 13.960938 16.984375 13.960938 16.574219 Z M 13.960938 16.574219 "/>
<path style=" stroke:none;fill-rule:nonzero;fill:rgb(12.941177%,12.941177%,12.941177%);fill-opacity:1;" d="M 9.257812 9.804688 C 9.050781 9.800781 8.847656 9.875 8.695312 10.027344 L 8.652344 10.070312 C 8.476562 10.246094 8.402344 10.488281 8.433594 10.722656 L 8.433594 10.714844 L 8.433594 16.582031 C 8.433594 17.03125 8.800781 17.394531 9.25 17.394531 C 9.699219 17.394531 10.0625 17.03125 10.0625 16.582031 L 10.0625 12.589844 L 11.390625 13.917969 C 11.550781 14.078125 11.753906 14.160156 11.957031 14.164062 C 11.964844 14.164062 11.972656 14.164062 11.976562 14.164062 C 11.984375 14.164062 11.992188 14.164062 12 14.164062 C 12.203125 14.160156 12.40625 14.078125 12.5625 13.917969 L 13.890625 12.589844 L 13.890625 16.582031 C 13.890625 17.03125 14.257812 17.394531 14.707031 17.394531 C 15.15625 17.394531 15.519531 17.03125 15.519531 16.582031 L 15.519531 10.714844 L 15.519531 10.722656 C 15.550781 10.488281 15.480469 10.246094 15.304688 10.070312 L 15.261719 10.027344 C 14.953125 9.71875 14.449219 9.730469 14.128906 10.046875 L 11.976562 12.203125 L 9.824219 10.046875 C 9.667969 9.890625 9.460938 9.808594 9.257812 9.804688 Z M 14.703125 9.945312 C 14.871094 9.941406 15.035156 10 15.164062 10.128906 L 15.203125 10.167969 C 15.347656 10.3125 15.40625 10.511719 15.382812 10.703125 L 15.378906 10.710938 L 15.378906 16.582031 C 15.378906 16.953125 15.082031 17.253906 14.707031 17.253906 C 14.332031 17.253906 14.03125 16.953125 14.03125 16.582031 L 14.03125 12.25 L 12.464844 13.820312 C 12.332031 13.953125 12.164062 14.019531 11.996094 14.023438 C 11.992188 14.023438 11.984375 14.023438 11.976562 14.023438 C 11.972656 14.023438 11.964844 14.023438 11.960938 14.023438 C 11.792969 14.019531 11.625 13.953125 11.492188 13.820312 L 9.921875 12.25 L 9.921875 16.582031 C 9.921875 16.953125 9.625 17.253906 9.25 17.253906 C 8.875 17.253906 8.574219 16.953125 8.574219 16.582031 L 8.574219 10.703125 C 8.546875 10.511719 8.605469 10.3125 8.753906 10.167969 L 8.792969 10.128906 C 8.917969 10 9.085938 9.941406 9.253906 9.945312 C 9.421875 9.949219 9.59375 10.015625 9.726562 10.148438 L 11.976562 12.398438 L 14.230469 10.148438 C 14.363281 10.015625 14.53125 9.945312 14.703125 9.945312 Z M 14.703125 9.945312 "/>
</g>
</svg>

<svg xmlns="http://www.w3.org/2000/svg" width="24" height="24"><defs><linearGradient id="a" gradientUnits="userSpaceOnUse" x1="254" y1="233.5" x2="254" y2="254.667" gradientTransform="matrix(.04688 0 0 .04688 0 10.08)"><stop offset="0" stop-opacity=".275"/><stop offset="1" stop-opacity="0"/></linearGradient><radialGradient id="b" gradientUnits="userSpaceOnUse" cx="450.909" cy="189.579" fx="450.909" fy="189.579" r="21.167" gradientTransform="matrix(0 -.0586 -.10548 0 40.586 47.697)"><stop offset="0" stop-opacity=".314"/><stop offset=".222" stop-opacity=".275"/><stop offset="1" stop-opacity="0"/></radialGradient><radialGradient id="c" gradientUnits="userSpaceOnUse" cx="450.909" cy="189.579" fx="450.909" fy="189.579" r="21.167" gradientTransform="matrix(0 .0586 .10548 0 -16.772 -5.646)"><stop offset="0" stop-opacity=".314"/><stop offset=".222" stop-opacity=".275"/><stop offset="1" stop-opacity="0"/></radialGradient><radialGradient id="d" gradientUnits="userSpaceOnUse" cx="450.909" cy="189.579" fx="450.909" fy="189.579" r="21.167" gradientTransform="matrix(0 -.0586 .10548 0 -16.772 47.697)"><stop offset="0" stop-opacity=".314"/><stop offset=".222" stop-opacity=".275"/><stop offset="1" stop-opacity="0"/></radialGradient><radialGradient id="e" gradientUnits="userSpaceOnUse" cx="450.909" cy="189.579" fx="450.909" fy="189.579" r="21.167" gradientTransform="matrix(0 .0586 -.10548 0 40.586 -5.646)"><stop offset="0" stop-opacity=".314"/><stop offset=".222" stop-opacity=".275"/><stop offset="1" stop-opacity="0"/></radialGradient><linearGradient id="f" gradientUnits="userSpaceOnUse" x1="254" y1="-147.5" x2="254" y2="-31.083" gradientTransform="matrix(.04688 0 0 .04688 0 10.08)"><stop offset="0" stop-color="#a4a4a4" stop-opacity="0"/><stop offset="1" stop-color="#fff" stop-opacity=".196"/></linearGradient><linearGradient id="g" gradientUnits="userSpaceOnUse" x1="254" y1="233.5" x2="254" y2="-105.167" gradientTransform="matrix(.04688 0 0 .04688 0 10.08)"><stop offset="0" stop-color="#585858" stop-opacity="0"/><stop offset="1" stop-color="#fafafa" stop-opacity=".196"/></linearGradient><linearGradient id="h" gradientUnits="userSpaceOnUse" x1="254" y1="-147.5" x2="254" y2="233.5" gradientTransform="matrix(.04688 0 0 .04688 0 10.08)"><stop offset="0" stop-color="#585858" stop-opacity="0"/><stop offset="1" stop-color="#fafafa" stop-opacity=".196"/></linearGradient></defs><path d="M2.977 21.027H20.84v.993H2.977zm0 0" fill="url(#a)"/><path d="M20.84 21.027h1.984v-.996H20.84zm0 0" fill="url(#b)"/><path d="M2.977 21.027H.992v.993h1.985zm0 0" fill="url(#c)"/><path d="M2.977 21.027H.992v-.996h1.985zm0 0" fill="url(#d)"/><path d="M20.84 21.027h1.984v.993H20.84zm0 0" fill="url(#e)"/><path d="M5.457 3.164h16.125c.547 0 .992.445.992.992V7.88a.994.994 0 0 1-.992.992H5.457a.994.994 0 0 1-.992-.992V4.156c0-.547.445-.992.992-.992zm0 0" fill="#7cb342"/><path d="M5.457 3.164h16.125c.547 0 .992.445.992.992V7.88a.994.994 0 0 1-.992.992H5.457a.994.994 0 0 1-.992-.992V4.156c0-.547.445-.992.992-.992zm0 0" fill="url(#f)"/><path d="M5.457 3.164a.989.989 0 0 0-.992.992v.125c0-.55.441-.992.992-.992h16.125c.55 0 .992.441.992.992v-.125a.989.989 0 0 0-.992-.992zm0 0" fill="#e6e6e6" fill-opacity=".588"/><path d="M5.457 3.094c-.586 0-1.062.476-1.062 1.062V7.88c0 .586.476 1.062 1.062 1.062h16.125c.586 0 1.063-.476 1.063-1.062V4.156c0-.586-.477-1.062-1.063-1.062zm0 .14h16.125c.512 0 .922.41.922.922V7.88c0 .512-.41.922-.922.922H5.457a.919.919 0 0 1-.922-.922V4.156c0-.511.41-.922.922-.922zm0 0" fill="#212121"/><path d="M1.984 5.148a.989.989 0 0 0-.992.993v13.89c0 .551.442.996.992.996h19.848a.994.994 0 0 0 .992-.996V7.63H9.426a.991.991 0 0 1-.992-.992V5.148zm0 0" fill="#9ccc65"/><path d="M1.984 5.148a.989.989 0 0 0-.992.993v13.89c0 .551.442.996.992.996h19.848a.994.994 0 0 0 .992-.996V7.63H9.426a.991.991 0 0 1-.992-.992V5.148zm0 0" fill="url(#g)"/><path d="M1.984 21.027a.992.992 0 0 1-.992-.996v-.12c0 .546.442.991.992.991h19.848a.994.994 0 0 0 .992-.992v.121c0 .551-.445.996-.992.996zm0 0" fill-opacity=".196"/><path d="M1.984 5.148a.989.989 0 0 0-.992.993v.125c0-.551.442-.993.992-.993h6.45v-.125zm0 0M9.363 7.691a.991.991 0 0 1-.992-.992v-.125c0 .551.445.996.992.992h13.461v.125zm0 0" fill="#e6e6e6" fill-opacity=".937"/><path d="M1.984 5.078c-.586 0-1.062.477-1.062 1.063v13.89c0 .59.476 1.067 1.062 1.067h19.848c.586 0 1.063-.477 1.063-1.067V7.488H9.425a.919.919 0 0 1-.921-.922V5.078zm0 .14h6.38v1.348c0 .59.476 1.063 1.062 1.063h13.328V20.03a.92.92 0 0 1-.922.926H1.984a.92.92 0 0 1-.921-.926V6.141c0-.512.41-.922.921-.922zm0 0" fill="#212121"/><path d="M9.254 9.875a.695.695 0 0 0-.512.203l-.039.04a.718.718 0 0 0-.2.597v5.867c0 .41.333.742.747.742.41 0 .742-.332.742-.742v-4.16l1.45 1.45a.754.754 0 0 0 .515.222h.04a.763.763 0 0 0 .519-.223l1.445-1.45v4.161c0 .41.332.742.746.742.41 0 .742-.332.742-.742v-5.867a.703.703 0 0 0-.195-.598l-.043-.039c-.277-.281-.738-.27-1.031.02L11.977 12.3l-2.204-2.203a.756.756 0 0 0-.52-.223zm0 0" fill="#7cb342"/><path d="M9.254 9.875a.695.695 0 0 0-.512.203l-.039.04a.718.718 0 0 0-.2.597v5.867c0 .41.333.742.747.742.41 0 .742-.332.742-.742v-4.16l1.45 1.45a.754.754 0 0 0 .515.222h.04a.763.763 0 0 0 .519-.223l1.445-1.45v4.161c0 .41.332.742.746.742.41 0 .742-.332.742-.742v-5.867a.703.703 0 0 0-.195-.598l-.043-.039c-.277-.281-.738-.27-1.031.02L11.977 12.3l-2.204-2.203a.756.756 0 0 0-.52-.223zm0 0" fill="url(#h)"/><path d="M9.258 9.805a.768.768 0 0 0-.563.222l-.043.043a.774.774 0 0 0-.218.653v-.008 5.867a.815.815 0 0 0 1.629 0V12.59l1.328 1.328c.16.16.363.242.566.246H12a.806.806 0 0 0 .563-.246l1.328-1.328v3.992a.815.815 0 0 0 1.629 0v-5.867.008a.772.772 0 0 0-.215-.653l-.043-.043c-.309-.308-.813-.297-1.133.02l-2.152 2.156-2.153-2.156a.827.827 0 0 0-.566-.242zm5.445.14a.62.62 0 0 1 .461.184l.04.039a.643.643 0 0 1 .179.535l-.004.008v5.871a.67.67 0 0 1-.672.672.673.673 0 0 1-.676-.672V12.25l-1.566 1.57c-.133.133-.3.2-.469.203h-.035a.682.682 0 0 1-.469-.203l-1.57-1.57v4.332a.67.67 0 0 1-.672.672.673.673 0 0 1-.676-.672v-5.879a.619.619 0 0 1 .18-.535l.039-.04a.615.615 0 0 1 .46-.183c.169.004.34.07.474.203l2.25 2.25 2.253-2.25a.667.667 0 0 1 .473-.203zm0 0" fill="#212121"/></svg>
